core/assets/icons/operator.svg

<svg width="24" height="24" viewBox="0 0 24 24" xmlns="http://www.w3.org/2000/svg"><g id="operator"><path id="Vector" d="M22 16.571C21.9996 17.9385 21.5321 19.2649 20.675 20.3306C19.8179 21.3963 18.6226 22.1373 17.287 22.431L16.649 20.517C17.2332 20.4207 17.7888 20.1961 18.2758 19.8593C18.7627 19.5224 19.1689 19.0817 19.465 18.569H17C16.4696 18.569 15.9609 18.3583 15.5858 17.9832C15.2107 17.6081 15 17.0994 15 16.569V12.569C15 12.0385 15.2107 11.5298 15.5858 11.1548C15.9609 10.7797 16.4696 10.569 17 10.569H19.938C19.694 8.63586 18.7529 6.85824 17.2914 5.56965C15.8299 4.28105 13.9484 3.57005 12 3.57005C10.0516 3.57005 8.17007 4.28105 6.70857 5.56965C5.24708 6.85824 4.30603 8.63586 4.062 10.569H7C7.53043 10.569 8.03914 10.7797 8.41421 11.1548C8.78929 11.5298 9 12.0385 9 12.569V16.569C9 17.0994 8.78929 17.6081 8.41421 17.9832C8.03914 18.3583 7.53043 18.569 7 18.569H4C3.46957 18.569 2.96086 18.3583 2.58579 17.9832C2.21071 17.6081 2 17.0994 2 16.569V11.569C2 6.04597 6.477 1.56897 12 1.56897C17.523 1.56897 22 6.04597 22 11.569V16.571ZM20 16.569V12.569H17V16.569H20ZM4 12.569V16.569H7V12.569H4Z"/></g></svg>

<svg xmlns="http://www.w3.org/2000/svg" width="24" height="24" fill="none"><path fill="#191C22" d="M22 16.571a6.002 6.002 0 0 1-4.713 5.86l-.638-1.914a4.005 4.005 0 0 0 2.816-1.948H17a2 2 0 0 1-2-2v-4a2 2 0 0 1 2-2h2.938a8 8 0 0 0-15.876 0H7a2 2 0 0 1 2 2v4a2 2 0 0 1-2 2H4a2 2 0 0 1-2-2v-5c0-5.523 4.477-10 10-10s10 4.477 10 10v5.002Zm-2-.002v-4h-3v4h3Zm-16-4v4h3v-4H4Z"/></svg>
